X: 39164
T: Sweets Of May, The
R: jig
M: 6/8
K: Dmajor
A|:dfa f3|e2 f gfe|dfa f2 f|ecA d3|
dfa f2 A|e2 f gfe|dfa faf|ecA d3:|
|:efe e2 d|B2 d e2 A|d2 e f2 e|f2 g a2 f|
efe e2 d|B2 d e3|dfa faf|1 ecA d3:|2 ecA d3-||
d2 A d2 e|fef gfe|d2 A d/e/fd|ecA d3-|
d3 d2 e|ff/f/f gfe|d2 A d2 f|ecA d2||
|:f|aba a^ga|A3 A3|gag gfg|A3 ABc|
d2 A d2 e|f2 f gfe|d2 A def|1 ecA d2:|2 ecA d3||

